Cloud/dashboard/static/tracks/singapore.svg

<?xml version="1.0" encoding="UTF-8"?>
<!-- Uploaded to: SVG Find, www.svgfind.com, Generator: SVG Find Mixer Tools -->
<svg fill="#000000" width="800px" height="800px" version="1.1" viewBox="144 144 512 512" xmlns="http://www.w3.org/2000/svg">
 <path d="m605.41 328.42-16.383-23.656 8.1172-5.5508-23.543-34.434 0.72266-4.7969-14.523-6.5938 6.418 9.3828 24.031 35.145-4.0469 2.7656-75.035-108.34c-4.1172-5.9414-12.621-8.0273-19.07-4.6406-4.918 2.5859-9.5469 3.5078-13.605 2.6641-3.1133-0.64453-5.7383-1.6094-7.8125-2.8633-1.7578-1.0625-3.7617-1.625-5.8008-1.625-5.5742 0-10.195 3.9648-10.984 9.4258-0.96484 6.6602-0.14844 17.355 9.1914 30.477 7.7461 10.879 17.277 20.703 25.684 29.367 9.2695 9.5547 18.023 18.578 21.805 26.438l6.2656 13.023c0.92578 1.9258 1.0352 4.0898 0.30859 6.1016-0.72656 2.0078-2.1992 3.6055-4.1406 4.4922l-118.44 54.039c-9.1055 4.1523-19.199 5.6055-29.105 4.1836l-82.285-11.809c-9.2969-1.3242-17.496 5.6289-18.039 14.715l-2.5195 42.156c-0.11719 1.9258-0.11719 3.8789-0.007812 5.8047l0.34766 5.043-45.359-13.734c-1.5-0.45703-3.0508-0.6875-4.6016-0.6875-8.4648 0-15.398 6.6328-15.789 15.098l-5.625 121.33c-0.26953 5.8867 1.8164 11.469 5.8828 15.727 4.4453 4.6523 10.777 7.1016 17.277 6.5156 7.8438-0.69531 15.52-1.6602 22.617-3.0547l-0.99609 9.3555c-0.62109 5.8828 2.8203 11.406 8.3789 13.434 34.949 12.727 54.59 19.809 58.488 21.086 0.46094 0.39062 1.9414 1.8086 5.0273 6.0586 1.6602 2.2852 4.3359 3.6523 7.1641 3.6523 2.4805 0 4.8594-1.0508 6.5391-2.8789 2.375-2.5898 3.5547-6.0898 3.2422-9.5898-0.46875-5.207-2.2969-16.625-9.2969-34.574-5.9961-15.383-35.691-93.773-34.227-132.98l53.758 14.922c11.93 3.3086 24.746 2.2891 36-2.8672l5.4023-2.4766c1.7422-0.80078 3.8672-0.011719 4.6914 1.6914l7.375 15.328c1.8984 3.957 6.9258 5.8555 10.977 4.1328l65.176-27.746c4.1367-1.7578 6.0664-6.418 4.3906-10.605-4.0469-10.129-4.75-17.988-5.0078-21.441l33.875-15.773c0.73047-0.33984 1.7891-0.25 2.3086 0.82422l5.1992 10.809c2.8633 5.9531 10.465 8.7734 16.539 6.0898l73.07-32.359c5.3633-2.375 9.0664-7.2578 9.9023-13.059 0.84766-5.8789 2.0859-14.578 2.9531-21.328 0.52734-4.168-0.49219-8.3633-2.8828-11.82zm-9.8984 31.73c-0.34766 2.3984-1.8789 4.4219-4.1016 5.4023l-73.07 32.359c-1.3398 0.60156-2.9609-0.019531-3.5859-1.3203l-5.1992-10.805c-2.668-5.5547-9.8125-8.1406-15.438-5.5234l-33.875 15.773c-3.4219 1.5938-5.5938 5.0586-5.5352 8.8242 0.066406 4.2656 0.8125 12.875 4.918 23.75l-62.383 26.559-6.7852-14.102c-3.0742-6.3906-11.273-9.3828-17.766-6.4102l-5.4023 2.4766c-9.1289 4.1797-19.531 5.0117-29.215 2.332l-54.316-15.078c-0.82812-0.23438-1.6836-0.34766-2.5391-0.34766-5.0664 0-9.2148 3.9648-9.4453 9.0234-1.832 39.969 26.227 115.44 34.871 137.62 6.5508 16.809 8.2344 27.176 8.6562 31.859 0.023437 0.24609 0.007812 0.49609-0.035157 0.73828-4.5625-6.0938-6.8125-7.7148-8.8477-8.2578-1.8516-0.54297-24.188-8.5977-58.289-21.016-1.2656-0.46094-2.0508-1.7227-1.9102-3.0625l0.99609-9.3555c0.28906-2.7461-0.60156-5.4961-2.4453-7.5469-1.8516-2.0547-4.4883-3.2344-7.2422-3.2344-0.52734 0-1.0664 0.042968-1.6094 0.13281-7.0469 1.168-14.469 2.1016-22.062 2.7734-3.5039 0.28516-6.8164-0.96094-9.2266-3.4844-2.1758-2.2773-3.293-5.2695-3.1445-8.418l5.6211-121.33c0.17578-3.7383 3.9609-6.4805 7.6055-5.3789l45.359 13.734c3.543 1.0703 7.5195 0.003907 10.051-2.6758 1.8789-1.9883 2.8281-4.5938 2.6758-7.332l-0.28906-5.0898c-0.089844-1.5469-0.085938-3.1016 0.003906-4.6523l2.5195-42.152c0.20312-3.3945 3.293-5.9922 6.7266-5.4922l82.285 11.809c11.789 1.6914 23.797-0.035156 34.633-4.9766l118.44-54.039c4.3906-2 7.7109-5.6055 9.3555-10.141 1.6406-4.5391 1.3906-9.4336-0.69922-13.777l-6.2656-13.023c-4.4766-9.3086-13.352-18.453-23.621-29.043-8.5625-8.8242-17.414-17.949-24.727-28.215-5.8828-8.2656-8.4609-16.32-7.4492-23.301 0.10547-0.73047 0.80859-0.92578 1.1641-0.92578 0.23438 0 0.44922 0.0625 0.66016 0.19141 3.0391 1.8398 6.7227 3.2148 10.938 4.0898 6.3203 1.3125 13.258 0.074218 20.23-3.5977 2.1602-1.1328 4.9375-0.45312 6.2969 1.5078l94.242 136.07c0.99219 1.4336 1.418 3.1797 1.1953 4.9062-0.85156 6.6953-2.0781 15.336-2.9219 21.172z"/>
</svg>

<?xml version="1.0" encoding="utf-8"?>
<svg fill="#000000" width="800px" height="800px" version="1.1" viewBox="144 144 512 512" xmlns="http://www.w3.org/2000/svg">
  <path d="M 605.41 328.42 L 511.168 192.342 C 507.051 186.4 498.547 184.315 492.098 187.701 C 487.18 190.287 482.551 191.209 478.493 190.365 C 475.38 189.721 472.755 188.756 470.68 187.502 C 468.923 186.44 466.919 185.877 464.88 185.877 C 459.305 185.877 454.685 189.842 453.896 195.303 C 452.931 201.963 453.747 212.658 463.087 225.78 C 470.833 236.659 480.364 246.483 488.771 255.147 C 498.041 264.702 506.794 273.725 510.576 281.585 L 516.842 294.608 C 517.767 296.534 517.877 298.698 517.15 300.71 C 516.424 302.717 514.951 304.315 513.01 305.202 L 394.57 359.241 C 385.464 363.393 375.371 364.846 365.465 363.424 L 283.18 351.615 C 273.883 350.291 265.684 357.244 265.141 366.33 L 262.621 408.486 C 262.504 410.412 262.504 412.365 262.613 414.291 L 262.961 419.334 L 217.602 405.6 C 216.102 405.143 214.551 404.912 213 404.912 C 204.536 404.912 197.602 411.545 197.211 420.01 L 191.586 541.34 C 191.317 547.227 193.403 552.809 197.469 557.067 C 201.914 561.72 208.246 564.169 214.746 563.583 C 222.59 562.888 230.266 561.923 237.363 560.528 L 236.367 569.884 C 235.746 575.767 239.187 581.29 244.746 583.318 C 279.695 596.045 299.336 603.127 303.234 604.404 C 303.695 604.795 305.175 606.213 308.261 610.463 C 309.921 612.748 312.597 614.115 315.425 614.115 C 317.906 614.115 320.285 613.064 321.964 611.236 C 324.339 608.646 325.519 605.146 325.207 601.646 C 324.738 596.439 322.91 585.021 315.91 567.072 C 309.914 551.689 280.219 473.299 281.683 434.092 L 335.441 449.014 C 347.371 452.323 360.187 451.303 371.441 446.147 L 376.843 443.67 C 378.585 442.87 380.71 443.659 381.534 445.362 L 388.909 460.69 C 390.808 464.647 395.835 466.545 399.886 464.823 L 465.062 437.077 C 469.199 435.319 471.129 430.659 469.453 426.472 C 465.406 416.343 464.703 408.484 464.445 405.031 L 498.32 389.258 C 499.051 388.918 500.109 389.008 500.629 390.082 L 505.828 400.891 C 508.691 406.844 516.293 409.664 522.367 406.981 L 595.437 374.622 C 600.8 372.247 604.503 367.364 605.339 361.563 C 606.187 355.684 607.425 346.985 608.292 340.235 C 608.82 336.067 607.8 331.871 605.41 328.415 L 605.41 328.42 Z M 595.512 360.15 C 595.164 362.548 593.633 364.572 591.41 365.552 L 518.34 397.911 C 517 398.513 515.379 397.892 514.754 396.591 L 509.555 385.786 C 506.887 380.231 499.742 377.645 494.117 380.263 L 460.242 396.036 C 456.82 397.629 454.648 401.094 454.707 404.86 C 454.773 409.125 455.519 417.735 459.625 428.61 L 397.242 455.169 L 390.457 441.067 C 387.382 434.676 379.184 431.684 372.691 434.657 L 367.288 437.133 C 358.159 441.313 347.757 442.145 338.073 439.465 L 283.757 424.387 C 282.929 424.153 282.074 424.04 281.218 424.04 C 276.152 424.04 272.003 428.004 271.773 433.063 C 269.941 473.032 298 548.503 306.644 570.683 C 313.195 587.492 314.878 597.859 315.3 602.542 C 315.323 602.788 315.308 603.038 315.265 603.28 C 310.702 597.186 308.452 595.565 306.417 595.022 C 304.566 594.479 282.229 586.425 248.128 574.006 C 246.863 573.546 246.077 572.284 246.218 570.944 L 247.214 561.588 C 247.503 558.842 246.613 556.092 244.769 554.042 C 242.917 551.987 240.28 550.807 237.527 550.807 C 236.999 550.807 236.46 550.85 235.917 550.94 C 228.87 552.108 221.448 553.042 213.855 553.713 C 210.351 553.999 207.039 552.752 204.629 550.229 C 202.453 547.952 201.336 544.96 201.484 541.811 L 207.105 420.481 C 207.281 416.743 211.066 414 214.711 415.102 L 260.07 428.836 C 263.613 429.906 267.589 428.84 270.121 426.16 C 272 424.172 272.949 421.566 272.796 418.828 L 272.507 413.738 C 272.418 412.192 272.421 410.637 272.511 409.086 L 275.031 366.934 C 275.234 363.54 278.324 360.942 281.757 361.442 L 364.042 373.251 C 375.831 374.942 387.839 373.216 398.675 368.274 L 517.115 314.235 C 521.506 312.235 524.826 308.63 526.471 304.094 C 528.112 299.555 527.862 294.661 525.772 290.317 L 519.506 277.294 C 515.029 267.986 506.154 258.841 495.885 248.251 C 487.323 239.427 478.471 230.302 471.158 220.036 C 465.275 211.771 462.697 203.716 463.709 196.735 C 463.814 196.005 464.518 195.81 464.873 195.81 C 465.107 195.81 465.322 195.872 465.533 196.001 C 468.572 197.841 472.256 199.216 476.471 200.091 C 482.791 201.403 489.729 200.165 496.701 196.493 C 498.861 195.36 501.639 196.04 502.998 198.001 L 597.24 334.071 C 598.232 335.504 598.658 337.251 598.435 338.977 C 597.584 345.672 596.357 354.313 595.513 360.149 L 595.512 360.15 Z"/>
</svg>
